X:155
T:Xmas simple chords 9
M:3/4
L:1/8
K:G
d[d2G,2B,2D2]B c2 | d[BG,B,D] AG A2 | F[G2G,2B,2D2]G AB | c[B2D,2F,2A,2C2]A G2 | d[d2G,2B,2D2]B c2 |
d[BG,B,D] AG A2 | F[G2G,2B,2D2]G AB | c[B2D,2F,2A,2C2]A2< G2 |[A3A,3C3E3] A2 |
G[AD,F,A,C] Bc dc | B[A6D,6F,6A,6C6] |[d2G,,2][G,B,D] [e2C,,2] | [C,E,G,][d2D,,2][D,F,A,] [c2A,,2] |
[BA,CE][AD,,] G[AD,F,A,C] [G2G,,2] | [G,B,D]G,,2[c2G,2B,2D2]d | [BG,,]A [GG,B,D][A2D,,2][FD,F,A,C] | [G2G,,2] [GG,B,D][AC,,] B[cC,E,G,] |
[B2D,,2] [AD,F,A,C][G2G,,2][G,B,D] | [A2A,,2] [A,CE][A2A,,2][GA,CE] | [AD,,]B [cD,F,A,C][dG,,] c[BG,B,D] | [A2D,,2] [D,F,A,C]D,,2[D,F,A,C] |
[d2G,,2] [G,B,D][e2C,,2][C,E,G,] | [d2D,,2] [D,F,A,][c2A,,2][BA,CE] | [AD,,]G [AD,F,A,C][G2G,,2][G,B,D] | G,, |


